X: 1557
T: Isobelle's Waltz
C:John Spencer, Grafton, NSW (1952 - 2015)
B: australian traditional tunes wiki
M:3/4
L:1/8
R: Waltz
Q: 1/4=100
K:G
V:1 
BA|"G"G3A Bc|"D"d4Bd|"C"e2f2g2|"Em"b4a2|"C"g3e ge|"G"d4BG|"A"A2B2G2|"D"A4BA|
"G"G3A Bc|"D"d4Bd|"C"e2f2g2|"Em"b4a2|"C"g3e ge|"G"d2B2G2|"D"A3BA2|"G"G4FG|
"D"A2G2A2|"D7"c3BA2|"G"B2G2A2|"Em"B4AB|"C"c2A2c2|"G"B2dg fg|"A"a2f2e2|"D"d4ef|
"G"g2a2b2|"C"a2g3e|"G"d2e2d2|"Em"B4AG|"D"A3A Bc|"D7"d2c2A2|"C"G3A GF|"G"G4||
% abcbook-tune_id 6342d53a2fffb2529e2294f1


% abcbook-boost 0
% abcbook-tablature 
% abcbook-transpose 
% abcbook-lastupdated 1665324370969
% abcbook-soundfonts 
% abcbook-repeats 1
% NFF Book 2020
% Bush Traditions recording played by Carole Helman

